d1
  $ stutWith 2 (0.125*4) (stutWith 4 (0.0625) (|* gain 0.95))
  $ s "~ notes" # n "<1>" 

d2 
  $ s "[proc ~]" # n "<1 1 0 0>" # gain "0.8"

d3 
  $ s "[glitch2*2 ~ <print*2 print> glitch*2 glitch]" # n (irand 16) # speed "<1 1.5 0.5>"

d4
  $ s "[supersaw*8 ~]" # n "<-26 -26>" 

d5
  $ "bd*4" # n "21"

d1 silence

d2 silence

d3 silence

d4 silence

